X:1
T:Come farò cuor mio
T:Come farò cuor mio
T:Claudio Monteverdi
T:© BB 2003
T:© BB 2003
C:Claudio Monteverdi (1567-1643)
C:
Z:© BB 2003
%%score [ 1 2 3 ]
L:1/8
M:4/4
K:F
V:1 treble nm="Sopraan"
V:2 treble nm="Mezzo"
V:3 treble nm="Alt"
V:1
 z2 d4 c B | A2 G2 A2 B2- | B2 A G (^F2 G2- | G ^F/ E/ F2) G2 :: B2 | G3 A B2 d2 | g2 f2 _e2 d2 | %7
w: Co- me fa-|rò cuor mio quan-|* do mi par- *|* * * * to.|Se|sol pen san- do\_a|la cru- del par-|
w: Co- me vi-|vrò cor mio da|_ te lon- ta- *|* * * * no.|Se|sol per co- si|mio cru- del par-|
w: Ma pur con-|ten- to son, poi|_ ch'il cor mi- *|* * * * o.|Res-|ta con voi pur|la cru- del par-|
 c4 d4 | z4 z2 d2 | g2 g2 f3 e | d4 z2 A2 | ^F2 F2 G4 | A2 A4 ^F2 | G2 (A4 G2- |1 %14
w: ti- ta.|Mi|sen- to ve- nir|men l'al-|ma\_e la vi-|ta l'al- ma\_e|la vi- *|
w: ti- ta.|Mi|sen- to ve- nir|men l'al-|ma\_e la vi-|ta l'al- ma\_e|la vi- *|
w: ti- ta.|Ch'ogn'|hor mi ven- ga|men l'al-|ma\_e la vi-|ta l'al- ma\_e|la vi- *|
 G ^F/ E/ F2) G4 :|2 G8 |] %16
w: * * * * ta.|ta.|
w: * * * * ta.|ta.|
w: * * * * ta.|ta.|
V:2
 z2 B4 A G | ^F2 G2 F2 G2 | B2 c2 (d3 c/ B/ | A4) =B2 :: d2 | d3 c B2 A2 | G2 A2 A2 B2 | A4 B4 | %8
w: Co- me fa-|rò cuor mio quan-|do mi par- * *|* to.|Se|sol pen san- do\_a|la cru- del par-|ti- ta.|
w: Co- me vi-|vrò cor mio da|te lon- ta- * *|* no.|Se|sol per co- si|mio cru- del par-|ti- ta.|
w: Ma pur con-|ten- to son, poi|ch'il cor mi- * *|* o.|Res-|ta con voi pur|la cru- del par-|ti- ta.|
 A4 d2 d2 | c3 B A2 d2 | =B2 B2 c4 | d2 A2 d2 d2 | c3 B A4 | z2 A2 ^F2 G2 |1 A4 =B4 :|2 =B8 |] %16
w: Mi sen- to|ve- nir men l'al-|ma\_e la vi-|ta. Mi sen- to|ve- nir men|l'al- ma\_e la|vi- ta.|ta.|
w: Mi sen- to|ve- nir men l'al-|ma\_e la vi-|ta. Mi sen- to|ve- nir men|l'al- ma\_e la|vi- ta.|ta.|
w: Ch'ogn' hor mi|ven- ga men l'al-|ma\_e la vi-|ta. Mi sen- to|ve- nir men|l'al- ma\_e la|vi- ta.|ta.|
V:3
 z2 G,2 B,2 C2 | D2 _E2 D2 G2- | G2 F E D4- | D4 G,2 :: B2 | B3 A G2 F2 | _E2 D2 C2 B,2 | F4 B,4 | %8
w: Co- me fa-|rò cuor mio quan-|* do mi par-|* to.|Se|sol pen san- do\_a|la cru- del par-|ti- ta|
w: Co- me vi-|vrò cor mio da-|* te lon- ta-|* no.|Se|sol per co- si|mio cru- del par-|ti- ta|
w: Ma- pur con-|ten- to son, poi|_ ch'il cor mi-|* o.|Res-|ta con voi pur|la cru- del par-|ti- ta|
 z2 D2 =B,2 B,2 | C4 D2 D2 | G2 G2 F3 E | D2 D2 =B,2 B,2 | C4 D2 D2 | =B,2 C2 D4- |1 D4 G,4 :|2 %15
w: l'al- ma\_e la|vi- ta. Mi|sen- to ve- nir|men l'al- ma\_e la|vi- ta l'al-|ma\_e la vi-|* ta.|
w: l'al- ma\_e la|vi- ta. Mi|sen- to ve- nir|men l'al- ma\_e la|vi- ta, l'al-|ma\_e la vi-|* ta.|
w: l'al- ma\_e la|vi- ta. Ch'ogn'|hor mi ven- ga|men l'al- ma\_e la|vi- ta, l'al-|ma\_e la vi-|* ta.|
 G,8 |] %16
w: ta.|
w: ta.|
w: ta.|

